assets/arrow-up.svg

<svg xmlns="http://www.w3.org/2000/svg" fill="none" viewBox="0 0 12 22">
  <path fill="#2A2238" d="M5.25 21c0 .4142.33579.75.75.75s.75-.3358.75-.75h-1.5ZM6.53033.46967c-.29289-.292893-.76777-.292893-1.06066 0L.696699 5.24264c-.292893.29289-.292893.76777 0 1.06066s.767771.29289 1.060661 0L6 2.06066l4.2426 4.24264c.2929.29289.7678.29289 1.0607 0 .2929-.29289.2929-.76777 0-1.06066L6.53033.46967ZM6.75 21V1h-1.5v20h1.5Z"/>
</svg>

<svg width="12" height="22" viewBox="0 0 12 22" fill="none" xmlns="http://www.w3.org/2000/svg">
<path d="M5.25 21C5.25 21.4142 5.58579 21.75 6 21.75C6.41421 21.75 6.75 21.4142 6.75 21H5.25ZM6.53033 0.46967C6.23744 0.176777 5.76256 0.176777 5.46967 0.46967L0.696699 5.24264C0.403806 5.53553 0.403806 6.01041 0.696699 6.3033C0.989592 6.59619 1.46447 6.59619 1.75736 6.3033L6 2.06066L10.2426 6.3033C10.5355 6.59619 11.0104 6.59619 11.3033 6.3033C11.5962 6.01041 11.5962 5.53553 11.3033 5.24264L6.53033 0.46967ZM6.75 21L6.75 1H5.25L5.25 21H6.75Z" fill="#2A2238"/>
</svg>
